// SuperCollider Basics

// Navigating the IDE

// Comments

// Statements and Expressions

// Arithmentic Operations

// Variables

// Blocks of Code

// Messages

// Operator Precedence

// Lists of Values (Arrays)

// Functions

// Functions that make sound!

// .ar/.kr